X: 1955
T: Arrochar Bridge
R: reel
M: 4/4
K: Amajor
|:B,|A,2ef edc2|FGAB AGFD|E2ef edcA|BcdB cAA:|
|:g|abae c/c/c e=g|fdfa f2f/f/f|efae fbec|BABc A/A/A A:|

